images/twitter.svg

<svg width="40" height="40" viewBox="0 0 40 40" fill="none" xmlns="http://www.w3.org/2000/svg">
<path d="M40 19.9999C40 25.5228 37.7614 30.5228 34.1421 34.1421C30.5228 37.7614 25.5228 39.9999 20 39.9999C14.4772 39.9999 9.47715 37.7614 5.85786 34.1421C2.23858 30.5228 0 25.5228 0 19.9999C0 14.4771 2.23858 9.47709 5.85786 5.8578C9.47715 2.23852 14.4772 -6.10352e-05 20 -6.10352e-05C25.5228 -6.10352e-05 30.5228 2.23852 34.1421 5.8578C37.7614 9.47709 40 14.4771 40 19.9999Z" fill="#4D5AE5"/>
<g clip-path="url(#clip0_721538_87)">
<path d="M28 15.0389C27.405 15.2999 26.771 15.4729 26.11 15.5569C26.79 15.1509 27.309 14.5129 27.553 13.7439C26.919 14.1219 26.219 14.3889 25.473 14.5379C24.871 13.8969 24.013 13.4999 23.077 13.4999C21.261 13.4999 19.799 14.9739 19.799 16.7809C19.799 17.0409 19.821 17.2909 19.875 17.5289C17.148 17.3959 14.735 16.0889 13.114 14.0979C12.831 14.5889 12.665 15.1509 12.665 15.7559C12.665 16.8919 13.25 17.8989 14.122 18.4819C13.595 18.4719 13.078 18.3189 12.64 18.0779C12.64 18.0879 12.64 18.1009 12.64 18.1139C12.64 19.7079 13.777 21.0319 15.268 21.3369C15.001 21.4099 14.71 21.4449 14.408 21.4449C14.198 21.4449 13.986 21.4329 13.787 21.3889C14.212 22.6879 15.418 23.6429 16.852 23.6739C15.736 24.5469 14.319 25.0729 12.785 25.0729C12.516 25.0729 12.258 25.0609 12 25.0279C13.453 25.9649 15.175 26.4999 17.032 26.4999C23.068 26.4999 26.368 21.4999 26.368 17.1659C26.368 17.0209 26.363 16.8809 26.356 16.7419C27.007 16.2799 27.554 15.7029 28 15.0389Z" fill="#F4F4FD"/>
</g>
<defs>
<clipPath id="clip0_721538_87">
<rect width="16" height="16" fill="white" transform="translate(12 11.9999)"/>
</clipPath>
</defs>
</svg>

<svg xmlns="http://www.w3.org/2000/svg" width="40" height="40" fill="none"><path fill="#4D5AE5" d="M40 20a19.937 19.937 0 0 1-5.858 14.142A19.937 19.937 0 0 1 20 40a19.937 19.937 0 0 1-14.142-5.858A19.938 19.938 0 0 1 0 20 19.937 19.937 0 0 1 5.858 5.858 19.938 19.938 0 0 1 20 0a19.937 19.937 0 0 1 14.142 5.858A19.937 19.937 0 0 1 40 20Z"/><g clip-path="url(#a)"><path fill="#F4F4FD" d="M28 15.039a6.839 6.839 0 0 1-1.89.518 3.262 3.262 0 0 0 1.443-1.813 6.555 6.555 0 0 1-2.08.794 3.28 3.28 0 0 0-5.674 2.243c0 .26.022.51.076.748a9.284 9.284 0 0 1-6.761-3.431 3.285 3.285 0 0 0 1.008 4.384 3.24 3.24 0 0 1-1.482-.404v.036a3.295 3.295 0 0 0 2.628 3.223 3.274 3.274 0 0 1-.86.108 2.9 2.9 0 0 1-.621-.056 3.311 3.311 0 0 0 3.065 2.285 6.59 6.59 0 0 1-4.067 1.399c-.269 0-.527-.012-.785-.045a9.234 9.234 0 0 0 5.032 1.472c6.036 0 9.336-5 9.336-9.334 0-.145-.005-.285-.012-.424A6.544 6.544 0 0 0 28 15.039Z"/></g><defs><clipPath id="a"><path fill="#fff" d="M12 12h16v16H12z"/></clipPath></defs></svg>
